X: 9609
T: Dawn Of Dara
R: jig
M: 6/8
K: Edorian
|:~B2E ~G2E|GFd dBA|~B2e dBG|ABF AFD|
~B2E GBE|GFd dBA|~B2e def|1 e3 ede:|2 e3 e3||
|:~g3 efd|BcA ~A2F|~G2d dBA|~B2e def|
~g3 efd|BcA ~A2F|GBd Bdf|1 e3 e3:|2 e3 ede||

